src/icons/ruby.svg

<svg width="16" height="16" viewBox="0 0 16 16" fill="none" xmlns="http://www.w3.org/2000/svg">
<mask id="mask0_38_2553" style="mask-type:luminance" maskUnits="userSpaceOnUse" x="3" y="3" width="10" height="10">
<path d="M3 3H13V13H3V3Z" fill="white"/>
</mask>
<g mask="url(#mask0_38_2553)">
<path d="M9.43998 4.82799C8.61498 7.03399 7.07598 8.55999 4.86998 9.34099C3.78998 9.72499 2.89298 8.78699 3.69498 7.18299C4.54498 5.48599 5.84198 4.24599 7.58298 3.49399C9.14598 2.96799 9.76398 3.57999 9.43998 4.82799ZM9.10998 6.49099L12.755 6.23699C12.665 6.14999 12.613 6.09299 12.555 6.04699L9.30198 3.43399C9.19498 3.34799 9.12898 3.21199 8.98598 3.02199C9.44998 3.02199 9.82598 3.01799 10.2 3.02299C10.653 3.02999 11.117 2.98599 11.557 3.06699C12.509 3.24299 13.017 3.85699 12.998 4.82399C12.982 5.73099 12.438 12.461 12.438 12.461L10.974 11.156C10.974 11.156 10.861 11.029 10.792 10.985C10.205 10.611 9.95998 10.054 9.82598 9.38699C9.59098 8.26299 9.24798 7.08099 9.10998 6.48999M6.23298 9.16999L10.029 10.385C9.37076 11.0486 8.64019 11.6363 7.85098 12.137L12.106 12.462V12.516C12.106 12.516 5.20398 12.986 4.91798 12.981C3.70398 12.96 3.01598 12.294 2.99998 11.076C2.98998 10.392 3.06098 9.70599 3.10498 9.02299C3.10798 8.97099 3.18198 8.92299 3.22298 8.87399C3.28398 8.92899 3.37298 8.97099 3.40298 9.03999C3.76498 9.87999 4.57598 11.793 4.57598 11.793C4.57598 11.793 5.07598 11.742 5.30798 11.683C5.39798 11.659 5.50398 11.549 5.53298 11.456C5.83898 10.523 6.12598 9.39999 6.23298 9.16999Z" fill="#FC8289"/>
</g>
</svg>

<svg xmlns="http://www.w3.org/2000/svg" width="16" height="16" fill="none"><g clip-path="url(#a)"><path fill="#FC8289" d="M9.44 4.828C8.615 7.034 7.076 8.56 4.87 9.341c-1.08.384-1.977-.554-1.175-2.158.85-1.697 2.147-2.937 3.888-3.689 1.563-.526 2.181.086 1.857 1.334M9.11 6.491v.001l3.645-.255c-.09-.087-.142-.144-.2-.19L9.302 3.434c-.107-.086-.173-.222-.316-.412.464 0 .84-.004 1.214.001.453.007.917-.037 1.357.044.952.176 1.46.79 1.441 1.757-.016.907-.56 7.637-.56 7.637l-1.464-1.305s-.113-.127-.182-.171c-.587-.374-.832-.931-.966-1.598-.235-1.124-.578-2.306-.716-2.897m-2.877 2.68 3.796 1.215a12.5 12.5 0 0 1-2.178 1.752l4.255.325v.054s-6.902.47-7.188.465C3.704 12.96 3.016 12.294 3 11.076c-.01-.684.061-1.37.105-2.053.003-.052.077-.1.118-.149.061.055.15.097.18.166.362.84 1.173 2.753 1.173 2.753s.5-.051.732-.11c.09-.024.196-.134.225-.227.306-.933.593-2.055.7-2.285"/></g><defs><clipPath id="a"><path fill="#fff" d="M3 3h10v10H3z"/></clipPath></defs></svg>
